source/img/footer2-email.svg

<svg xmlns="http://www.w3.org/2000/svg" width="16" height="12"><defs><filter id="a"><feFlood flood-color="#FFF" flood-opacity="1" result="floodOut"/><feComposite operator="atop" in="floodOut" in2="SourceGraphic" result="compOut"/><feBlend in="compOut" in2="SourceGraphic"/></filter></defs><g filter="url(#a)"><path fill-rule="evenodd" opacity=".502" fill="#666" d="M13.999 11.42c1.097 0 1.994-.803 1.994-1.792V2.245c0-.986-.893-1.792-1.994-1.792H1.993C.896.453 0 1.255 0 2.245v7.383c0 .986.892 1.792 1.993 1.792h12.006zM2.037 2.947a.41.41 0 01-.056-.623.528.528 0 01.692-.051l5.323 4.068 5.327-4.064a.532.532 0 01.692.051.412.412 0 01-.056.622l-3.802 2.902 3.818 3.232a.408.408 0 01.02.623.529.529 0 01-.692.021L9.401 6.427l-1.089.832a.535.535 0 01-.316.105.535.535 0 01-.316-.105l-1.089-.832-3.902 3.301a.529.529 0 01-.693-.021.412.412 0 01.021-.623l3.818-3.232-3.798-2.905z"/></g></svg>

<svg 
 xmlns="http://www.w3.org/2000/svg"
 xmlns:xlink="http://www.w3.org/1999/xlink"
 width="16px" height="12px">
<defs>
<filter id="Filter_0">
    <feFlood flood-color="rgb(255, 255, 255)" flood-opacity="1" result="floodOut" />
    <feComposite operator="atop" in="floodOut" in2="SourceGraphic" result="compOut" />
    <feBlend mode="normal" in="compOut" in2="SourceGraphic" />
</filter>

</defs>
<g filter="url(#Filter_0)">
<path fill-rule="evenodd"  opacity="0.502" fill="rgb(102, 102, 102)"
 d="M13.999,11.420 C15.096,11.420 15.993,10.617 15.993,9.628 L15.993,2.245 C15.993,1.259 15.100,0.453 13.999,0.453 L1.993,0.453 C0.896,0.453 -0.000,1.255 -0.000,2.245 L-0.000,9.628 C-0.000,10.614 0.892,11.420 1.993,11.420 L13.999,11.420 ZM2.037,2.947 C1.828,2.788 1.804,2.511 1.981,2.324 C2.157,2.137 2.465,2.115 2.673,2.273 L7.996,6.341 L13.323,2.277 C13.531,2.119 13.839,2.144 14.015,2.328 C14.192,2.515 14.163,2.792 13.959,2.950 L10.157,5.852 L13.975,9.084 C14.172,9.249 14.184,9.530 13.995,9.707 C13.899,9.800 13.767,9.847 13.639,9.847 C13.519,9.847 13.399,9.807 13.303,9.728 L9.401,6.427 L8.312,7.259 C8.220,7.327 8.108,7.364 7.996,7.364 C7.884,7.364 7.772,7.327 7.680,7.259 L6.591,6.427 L2.689,9.728 C2.593,9.807 2.473,9.847 2.353,9.847 C2.221,9.847 2.093,9.800 1.996,9.707 C1.813,9.530 1.820,9.249 2.017,9.084 L5.835,5.852 L2.037,2.947 Z"/>
</g>
</svg>
